svg/fluentui-system-icons/ic_fluent_timer_2_24_filled.svg

<svg width="24" height="24" viewBox="0 0 24 24" fill="none" xmlns="http://www.w3.org/2000/svg">
<path d="M20.3943 12.1558C19.75 8.10013 16.237 5 12 5C7.30558 5 3.5 8.80558 3.5 13.5C3.5 18.1944 7.30558 22 12 22C13.056 22 14.0671 21.8074 15 21.4554V21.25C15 19.9384 15.5941 18.7656 16.5279 17.986C15.6663 17.8769 15 17.1413 15 16.25C15 13.9028 16.9028 12 19.25 12C19.6465 12 20.0302 12.0543 20.3943 12.1558ZM11.2568 8.64823C11.3065 8.28215 11.6203 8 12 8C12.3797 8 12.6935 8.28215 12.7432 8.64823L12.75 8.75V13.25L12.7432 13.3518C12.6935 13.7178 12.3797 14 12 14C11.6203 14 11.3065 13.7178 11.2568 13.3518L11.25 13.25V8.75L11.2568 8.64823ZM19.2517 5.18424L19.1704 5.1226C18.8617 4.91974 18.4428 4.97122 18.1936 5.25764C17.9217 5.5701 17.9545 6.04383 18.267 6.31576L19.416 7.31576L19.4973 7.3774C19.8061 7.58026 20.2249 7.52878 20.4742 7.24236C20.7461 6.9299 20.7132 6.45617 20.4008 6.18424L19.2517 5.18424ZM15 3.25C15 2.83579 14.6642 2.5 14.25 2.5H9.75L9.64823 2.50685C9.28215 2.55651 9 2.8703 9 3.25C9 3.66421 9.33579 4 9.75 4H14.25L14.3518 3.99315C14.7178 3.94349 15 3.6297 15 3.25ZM19.25 13C17.4551 13 16 14.4551 16 16.25C16 16.6642 16.3358 17 16.75 17C17.1642 17 17.5 16.6642 17.5 16.25C17.5 15.2835 18.2835 14.5 19.25 14.5C20.2165 14.5 21 15.2835 21 16.25C21 17.2165 20.2165 18 19.25 18C17.4551 18 16 19.4551 16 21.25V22.25C16 22.6642 16.3358 23 16.75 23H21.75C22.1642 23 22.5 22.6642 22.5 22.25C22.5 21.8358 22.1642 21.5 21.75 21.5H17.5V21.25C17.5 20.2835 18.2835 19.5 19.25 19.5C21.0449 19.5 22.5 18.0449 22.5 16.25C22.5 14.4551 21.0449 13 19.25 13Z" fill="#212121"/>
</svg>

<svg xmlns="http://www.w3.org/2000/svg" width="24" height="24"><path d="M20.394 12.156a8.5 8.5 0 1 0-5.394 9.3v-.206a4.24 4.24 0 0 1 1.528-3.264A1.75 1.75 0 0 1 15 16.25a4.25 4.25 0 0 1 5.394-4.094Zm-9.137-3.508a.75.75 0 0 1 1.486 0l.007.102v4.5l-.007.102a.75.75 0 0 1-1.486 0l-.007-.102v-4.5l.007-.102Zm7.995-3.464-.082-.061a.75.75 0 0 0-.903 1.193l1.149 1 .081.061a.75.75 0 0 0 .904-1.193l-1.15-1ZM15 3.25a.75.75 0 0 0-.75-.75h-4.5l-.102.007A.75.75 0 0 0 9.75 4h4.5l.102-.007A.75.75 0 0 0 15 3.25ZM19.25 13A3.25 3.25 0 0 0 16 16.25a.75.75 0 0 0 1.5 0A1.75 1.75 0 1 1 19.25 18 3.25 3.25 0 0 0 16 21.25v1c0 .414.336.75.75.75h5a.75.75 0 0 0 0-1.5H17.5v-.25c0-.966.784-1.75 1.75-1.75a3.25 3.25 0 0 0 0-6.5Z"/></svg>
